src/main/resources/icons/AllIcons/actions/profileCPU_dark.svg

<!-- Copyright 2000-2021 JetBrains s.r.o. Use of this source code is governed by the Apache 2.0 license that can be found in the LICENSE file. -->
<svg xmlns="http://www.w3.org/2000/svg" width="16" height="16" viewBox="0 0 16 16">
  <g fill="none" fill-rule="evenodd">
    <path fill="#AFB1B3" d="M11.9794631,7 L10.5572742,7 C10.308553,4.70256077 8.36269622,2.91412873 5.99912877,2.91412873 C3.46690317,2.91412873 1.41412873,4.96690317 1.41412873,7.49912877 C1.41412873,10.0313544 3.46690317,12.0841288 5.99912877,12.0841288 C6.34290125,12.0841288 6.6778372,12.0462951 7,11.9745644 L7,13.4170416 C6.67479153,13.4716012 6.34071221,13.5 6,13.5 C2.6862915,13.5 0,10.8137085 0,7.5 C0,4.1862915 2.6862915,1.5 6,1.5 C9.14533189,1.5 11.7253877,3.92023474 11.9794631,7 Z"/>
    <rect width="1.257" height="3.143" x="5.761" y="4.696" fill="#AFB1B3"/>
    <polygon fill="#AFB1B3" points="6.136 6.935 7.025 7.824 4.803 10.046 3.914 9.158"/>
    <path fill="#AFB1B3" d="M14,16 L14,14 L10,14 L10,16 L8,16 L8,8 L16,8 L16,16 L14,16 Z M9.5,9.5 L9.5,12 L14.5,12 L14.5,9.5 L9.5,9.5 Z M11,15 L13,15 L13,16 L11,16 L11,15 Z"/>
  </g>
</svg>

<svg xmlns="http://www.w3.org/2000/svg" width="16" height="16" viewBox="0 0 16 16"><rect id="frame" width="16" height="16" fill="none"/><g fill="#AFB1B3" fill-rule="evenodd"><path d="M11.98 7h-1.423A4.586 4.586 0 1 0 7 11.975v1.442A6 6 0 1 1 11.98 7z"/><path d="M5.761 4.696h1.257v3.143H5.761z"/><path d="M6.136 6.935l.889.889-2.222 2.222-.889-.888z"/><path d="M14 16v-2h-4v2H8V8h8v8h-2zM9.5 9.5V12h5V9.5h-5zM11 15h2v1h-2v-1z"/></g></svg>
